X:160
T: Jger und Graserin (2-62) S. 191
N: P0935
O: Lothringen
S: PINCK, Louis: Verklingende Weisen, Bd 2, Metz 1928]
R: Jgerlied]
M: 6/8
L: 1/16
K: G
D2 | D3GG2G3AB2 | A4G2D4A2 | D4z6
D2 | D3BB2B4B2 | A4B2d4
cB | A2A2A2A2A2D2 | G4A2B4z2 |
G3FE2c4F2 | G8z2

@@@ Tune index: 7710
